package/converter/svg/duotone/headphones-simple.svg

<svg xmlns="http://www.w3.org/2000/svg" viewBox="0 0 512 512"><!-- Font Awesome Pro 6.0.0-alpha2 by @fontawesome - https://fontawesome.com License - https://fontawesome.com/license (Commercial License) --><defs><style>.fa-secondary{opacity:.4}</style></defs><path d="M256 32C112.906 32 4.562 151.125 0 288V392C0 405.255 10.745 416 24 416H24C37.255 416 48 405.255 48 392V288C48 173.328 141.344 80.203 256 80.188C370.656 80.203 464 173.328 464 288V392C464 405.255 474.745 416 488 416L488 416C501.255 416 512 405.255 512 392V288C507.438 151.125 399.094 32 256 32Z" class="fa-secondary"/><path d="M160 288H144C108.656 288 80 316.703 80 352.125V415.875C80 451.297 108.656 480 144 480H160C177.656 480 192 465.641 192 447.938V320.062C192 302.344 177.656 288 160 288ZM368 288H352C334.344 288 320 302.344 320 320.062V447.938C320 465.641 334.344 480 352 480H368C403.344 480 432 451.297 432 415.875V352.125C432 316.703 403.344 288 368 288Z" class="fa-primary"/></svg>

<svg xmlns="http://www.w3.org/2000/svg" viewBox="0 0 512 512"><!--! Font Awesome Pro 6.6.0 by @fontawesome - https://fontawesome.com License - https://fontawesome.com/license (Commercial License) Copyright 2024 Fonticons, Inc. --><defs><style>.fa-secondary{opacity:.4}</style></defs><path class="fa-secondary" d="M0 288L0 392c0 13.3 10.7 24 24 24s24-10.7 24-24l0-104C48 173.1 141.1 80 256 80s208 93.1 208 208l0 104c0 13.3 10.7 24 24 24s24-10.7 24-24l0-104C512 146.6 397.4 32 256 32S0 146.6 0 288z"/><path class="fa-primary" d="M144 288c-35.3 0-64 28.7-64 64l0 64c0 35.3 28.7 64 64 64l16 0c17.7 0 32-14.3 32-32l0-128c0-17.7-14.3-32-32-32l-16 0zm224 0l-16 0c-17.7 0-32 14.3-32 32l0 128c0 17.7 14.3 32 32 32l16 0c35.3 0 64-28.7 64-64l0-64c0-35.3-28.7-64-64-64z"/></svg>
